X: 130023
T: JIG.
C: J.S.Neill.
R: Jig.
%R: jig
B: James Kerr "Merry Melodies" v.1 p.30 s.0 #23
Z: 2016 John Chambers <jc:trillian.mit.edu>
M: 6/8
L: 1/8
K: G
(3(d/e/f/) |!segno!\
gfe dcB | ABc BAG | E3 uA2uG | vF2vG AFD |\
gfe dcB | ABc BAG | EFG ABc | BcA G2 H:|
z |\
AB^c def | efg fed | gba gfe | d^cd ecA |\
AB^c def | efg fed | gfe fed | ed^c de"_D.C."f |]

%%sep 1 1 500
%%sep 1 1 500

